assets/img/braze_icons/refresh-cw-02.svg

<svg fill="none" height="24" viewBox="0 0 24 24" width="24" xmlns="http://www.w3.org/2000/svg"><g fill="#801ed7"><path d="m4.92889 4.92893c3.90525-3.90524 10.23691-3.90524 14.14211 0 .7981.79811 1.4293 1.46629 1.929 2.02471v-2.95364c0-.55228.4477-1 1-1s1 .44772 1 1v6c0 .5523-.4477 1-1 1h-6c-.5523 0-1-.4477-1-1 0-.55228.4477-1 1-1h4.1257c-.5122-.61719-1.2908-1.47875-2.4689-2.65685-3.1242-3.1242-8.1895-3.1242-11.31369 0-1.10799 1.10799-1.82176 2.45742-2.14411 3.87815-.1222.5386-.65789.8761-1.19648.7539-.5386-.1222-.87615-.6579-.75394-1.19647.40338-1.77787 1.29776-3.46724 2.68031-4.8498z"/><path d="m19.8009 13.7787c.1222-.5386.6579-.8761 1.1965-.7539s.8762.6578.754 1.1964c-.4034 1.7779-1.2978 3.4673-2.6804 4.8498-3.9052 3.9053-10.23685 3.9053-14.14209 0-.79778-.7977-1.42899-1.4659-1.92891-2.0246v2.9536c0 .5523-.44772 1-1 1s-1-.4477-1-1v-6c0-.5523.44772-1 1-1h6c.55229 0 1 .4477 1 1s-.44771 1-1 1h-4.12571c.51154.6164 1.28992 1.4779 2.46883 2.6568 3.1242 3.1242 8.18948 3.1242 11.31368 0 1.108-1.108 1.8218-2.4574 2.1441-3.8781z"/></g></svg>

<svg width="24" height="24" viewBox="0 0 24 24" fill="none" xmlns="http://www.w3.org/2000/svg">
<path d="M4.92889 4.92893C8.83414 1.02369 15.1658 1.02369 19.071 4.92893C19.8691 5.72704 20.5003 6.39522 21 6.95364V4C21 3.44772 21.4477 3 22 3C22.5523 3 23 3.44772 23 4V10C23 10.5523 22.5523 11 22 11H16C15.4477 11 15 10.5523 15 10C15 9.44772 15.4477 9 16 9H20.1257C19.6135 8.38281 18.8349 7.52125 17.6568 6.34315C14.5326 3.21895 9.4673 3.21895 6.34311 6.34315C5.23512 7.45114 4.52135 8.80057 4.199 10.2213C4.0768 10.7599 3.54111 11.0974 3.00252 10.9752C2.46392 10.853 2.12637 10.3173 2.24858 9.77873C2.65196 8.00086 3.54634 6.31149 4.92889 4.92893Z" fill="#801ED7"/>
<path d="M19.8009 13.7787C19.9231 13.2401 20.4588 12.9026 20.9974 13.0248C21.536 13.147 21.8736 13.6826 21.7514 14.2212C21.348 15.9991 20.4536 17.6885 19.071 19.071C15.1658 22.9763 8.83415 22.9763 4.92891 19.071C4.13113 18.2733 3.49992 17.6051 3 17.0464V20C3 20.5523 2.55228 21 2 21C1.44772 21 1 20.5523 1 20V14C1 13.4477 1.44772 13 2 13H8C8.55229 13 9 13.4477 9 14C9 14.5523 8.55229 15 8 15H3.87429C4.38583 15.6164 5.16421 16.4779 6.34312 17.6568C9.46732 20.781 14.5326 20.781 17.6568 17.6568C18.7648 16.5488 19.4786 15.1994 19.8009 13.7787Z" fill="#801ED7"/>
</svg>
